ii/x.svg

<svg xmlns="http://www.w3.org/2000/svg" viewBox="0 0 8 8" height="1em" width="1em">
  <path d="M1.41 0l-1.41 1.41.72.72 1.78 1.81-1.78 1.78-.72.69 1.41 1.44.72-.72 1.81-1.81 1.78 1.81.69.72 1.44-1.44-.72-.69-1.81-1.78 1.81-1.81.72-.72-1.44-1.41-.69.72-1.78 1.78-1.81-1.78-.72-.72z"/>
</svg>

<svg xmlns="http://www.w3.org/2000/svg" viewBox="0 0 8 8" height="1em" width="1em">
  <path d="M1.41 0 0 1.41l.72.72L2.5 3.94.72 5.72 0 6.41l1.41 1.44.72-.72 1.81-1.81 1.78 1.81.69.72 1.44-1.44-.72-.69-1.81-1.78 1.81-1.81.72-.72L6.41 0l-.69.72L3.94 2.5 2.13.72 1.41 0z"/>
</svg>
